packages/assets/static/images/icons/bold/identification-card--bold.svg

<svg width="24" height="24" viewBox="0 0 24 24" xmlns="http://www.w3.org/2000/svg">
<path d="M13.8749 10.1255C13.8749 9.82712 13.9935 9.54097 14.2044 9.32999C14.4154 9.11901 14.7016 9.00049 14.9999 9.00049H17.6249C17.9233 9.00049 18.2095 9.11901 18.4204 9.32999C18.6314 9.54097 18.7499 9.82712 18.7499 10.1255C18.7499 10.4239 18.6314 10.71 18.4204 10.921C18.2095 11.132 17.9233 11.2505 17.6249 11.2505H14.9999C14.7016 11.2505 14.4154 11.132 14.2044 10.921C13.9935 10.71 13.8749 10.4239 13.8749 10.1255ZM17.6249 12.7505H15.7499C15.4516 12.7505 15.1654 12.869 14.9544 13.08C14.7435 13.291 14.6249 13.5771 14.6249 13.8755C14.6249 14.1739 14.7435 14.46 14.9544 14.671C15.1654 14.882 15.4516 15.0005 15.7499 15.0005H17.6249C17.9233 15.0005 18.2095 14.882 18.4204 14.671C18.6314 14.46 18.7499 14.1739 18.7499 13.8755C18.7499 13.5771 18.6314 13.291 18.4204 13.08C18.2095 12.869 17.9233 12.7505 17.6249 12.7505ZM22.1249 5.25049V18.7505C22.1249 19.2478 21.9274 19.7247 21.5758 20.0763C21.2241 20.4279 20.7472 20.6255 20.2499 20.6255H3.74994C3.25266 20.6255 2.77574 20.4279 2.42411 20.0763C2.07248 19.7247 1.87494 19.2478 1.87494 18.7505V5.25049C1.87494 4.75321 2.07248 4.27629 2.42411 3.92466C2.77574 3.57303 3.25266 3.37549 3.74994 3.37549H20.2499C20.7472 3.37549 21.2241 3.57303 21.5758 3.92466C21.9274 4.27629 22.1249 4.75321 22.1249 5.25049ZM19.8749 5.62549H4.12494V18.3755H19.8749V5.62549ZM5.46369 14.9414C5.73363 14.3024 6.16097 13.7422 6.70588 13.313C6.31961 12.8139 6.08104 12.2165 6.01723 11.5886C5.95343 10.9607 6.06695 10.3275 6.34492 9.76091C6.62288 9.1943 7.05415 8.71699 7.58975 8.38317C8.12535 8.04934 8.74382 7.87238 9.37494 7.87238C10.0061 7.87238 10.6245 8.04934 11.1601 8.38317C11.6957 8.71699 12.127 9.1943 12.405 9.76091C12.6829 10.3275 12.7965 10.9607 12.7326 11.5886C12.6688 12.2165 12.4303 12.8139 12.044 13.313C12.5892 13.7422 13.0168 14.3024 13.2871 14.9414C13.4022 15.2168 13.4033 15.5266 13.2899 15.8027C13.1766 16.0789 12.9583 16.2986 12.6829 16.4138C12.4075 16.5289 12.0977 16.5299 11.8216 16.4166C11.5455 16.3033 11.3257 16.0849 11.2106 15.8096C10.9199 15.1121 10.1643 14.6255 9.37494 14.6255C8.58556 14.6255 7.83088 15.113 7.53838 15.8096C7.48444 15.9501 7.40283 16.0784 7.29838 16.1869C7.19394 16.2954 7.06879 16.3817 6.93034 16.4409C6.7919 16.5001 6.64298 16.5309 6.49241 16.5315C6.34184 16.5321 6.19269 16.5025 6.05378 16.4443C5.91488 16.3862 5.78906 16.3008 5.68378 16.1932C5.5785 16.0855 5.4959 15.9578 5.44087 15.8177C5.38584 15.6775 5.3595 15.5278 5.36342 15.3772C5.36734 15.2267 5.40144 15.0785 5.46369 14.9414ZM8.24994 11.2505C8.24994 11.473 8.31592 11.6905 8.43954 11.8755C8.56315 12.0605 8.73885 12.2047 8.94442 12.2899C9.14999 12.375 9.37619 12.3973 9.59442 12.3539C9.81264 12.3105 10.0131 12.2033 10.1704 12.046C10.3278 11.8886 10.4349 11.6882 10.4783 11.47C10.5217 11.2517 10.4995 11.0255 10.4143 10.82C10.3292 10.6144 10.185 10.4387 9.99996 10.3151C9.81495 10.1915 9.59744 10.1255 9.37494 10.1255C9.07657 10.1255 8.79042 10.244 8.57944 10.455C8.36847 10.666 8.24994 10.9521 8.24994 11.2505Z"/>
</svg>

<svg viewBox="0 0 24 24" xmlns="http://www.w3.org/2000/svg" aria-hidden="true" fill="currentColor"><path d="M13.875 10.126A1.125 1.125 0 0 1 15 9h2.625a1.125 1.125 0 1 1 0 2.25H15a1.125 1.125 0 0 1-1.125-1.124m3.75 2.625H15.75a1.125 1.125 0 0 0 0 2.25h1.875a1.125 1.125 0 1 0 0-2.25m4.5-7.5v13.5a1.875 1.875 0 0 1-1.875 1.874H3.75a1.875 1.875 0 0 1-1.875-1.875V5.25A1.875 1.875 0 0 1 3.75 3.375h16.5a1.875 1.875 0 0 1 1.875 1.875m-2.25.374H4.125v12.75h15.75zM5.464 14.941c.27-.639.697-1.199 1.242-1.628a3.375 3.375 0 1 1 5.338 0c.545.43.973.99 1.243 1.628a1.125 1.125 0 1 1-2.076.869c-.291-.698-1.047-1.184-1.836-1.184s-1.544.487-1.837 1.184a1.126 1.126 0 1 1-2.074-.869m2.786-3.69a1.125 1.125 0 1 0 2.25 0 1.125 1.125 0 0 0-2.25 0"/></svg>
